X: 6271
T: Carolan's Favourite
R: jig
M: 6/8
K: Gmajor
A|dAG F2D|{EF}G2E F2D|dAG F2D|ECE GFE|
dAG F2D|{EF}G2E F2D|GAB cBA GEC|E/F/GE||
f2d d/e/fd|afd e/f/ge|f2d d/e/fd|gec efg|
fed edc|dcB cBA|GAB cBA|GEC E/F/GE||
FED {F}d2D|FED {F}d2D|FED {F}d2D|GEC E/F/GE|
FED d2D|e2A f2D|g2A f2D|GEC E/F/GE||

